!!!!SEGMENT: R371_Str-w15p19m2-1h1m1-5.krn
!!!COM: Stravinsky, Igor (Fyodorovich)
!!!OTL: L'Histoire du soldat (The Soldier's Tale), to be Read, Played, and Danced
!!!OMV: Part II: The Royal March
!!!example: 371
!!!work: Str-15
!!!OMD: none
!!!AGN-sub: Theatrical
!!!OPR: L'Histoire du soldat (The Soldier's Tale), to be Read, Played, and Danced
!!!filename: R371_Str-w15p19m2-1h1m1-5.krn
**kern	**dynam	**kern	**dynam	**kern	**dynam	**kern	**dynam	**kern	**dynam	**kern	**dynam	**kern	**dynam	**kern	**dynam
*grp:A	*	*grp:A	*	*grp:A	*	*grp:A	*	*grp:A	*	*grp:B	*	*grp:A	*	*grp:A	*
*part8	*	*part7	*	*part6	*	*part5	*	*part4	*	*part3	*	*part2	*	*part1	*
*staff8	*	*staff7	*	*staff6	*	*staff5	*	*staff4	*	*staff3	*	*staff2	*	*staff1	*
*ICstr	*	*ICstr	*	*ICidio	*	*ICidio	*	*ICbras	*	*ICbras	*	*ICww	*	*ICww	*
*Icbass	*	*Ivioln	*	*Ibdrum	*	*Ipiatt	*	*Itromt	*	*Icornt	*	*Ifagot	*	*Iclars	*
*I"Contrabass	*	*I"Violin I	*	*I"Bass Drum	*	*I"Cymbal	*	*I"Trombone	*	*I"Cornet in Bb	*	*I"Bassoon	*	*I"Clarinet in Bb	*
*I'cb	*	*I'vn	*	*I'b-dr	*	*I'cymb	*	*I'tn	*	*I'cnto	*	*I'bn	*	*I'cl	*
*	*	*	*	*stria2	*	*stria1	*	*	*	*	*	*	*	*	*
*clefF4	*	*clefG2	*	*clefX	*	*clefX	*	*clefF4	*	*clefG2	*	*clefF4	*	*clefG2	*
*ITrd7c12	*	*	*	*	*	*	*	*	*	*ITrd1c2	*	*	*	*ITrd1c2	*
*k[b-e-]	*	*k[b-e-]	*	*k[]	*	*k[]	*	*k[b-e-]	*	*k[b-e-]	*	*k[b-e-]	*	*k[b-e-]	*
*B-:	*	*B-:	*	*C:	*	*C:	*	*B-:	*	*B-:	*	*B-:	*	*B-:	*
!!LO:TX:omd:tempo:a:t=[[quarter]=112]
*M5/8	*	*M5/8	*	*M5/8	*	*M5/8	*	*M5/8	*	*M5/8	*	*M5/8	*	*M4/8	*
=8	=8	=8	=8	=8	=8	=8	=8	=8	=8	=8	=8	=8	=8	=8	=8
!	!LO:DY:ed=brack	!	!LO:DY:ed=brack	!	!LO:DY:ed=brack	!	!LO:DY:ed=brack	!	!LO:DY:ed=brack	!	!LO:DY:ed=brack	!	!LO:DY:ed=brack	!	!LO:DY:ed=brack
!	!LO:DY:rj	!	!LO:DY:rj	!	!LO:DY:rj	!	!LO:DY:rj	!	!LO:DY:rj	!	!LO:DY:rj	!	!LO:DY:rj	!	!LO:DY:rj
!	!	!	!LO:DY:t=	!LO:TX:b:t=[mailloche]	!	!LO:TX:a:t=[(bois)]	!	!	!	!	!	!	!	!	!
8r	sff	8r	sff	8r	f	8r	f	8dL	f	8r	sf	8r	ff	8r	ff
!	!	!	!	!	!	!	!	!	!	!	!	!	!	!	!
8DD` 8FL	.	8d 8cc 8aa`L	.	8Re\L	.	8ReL/	.	16c	<	8a'L	.	8c`L	.	8aa`L	.
.	.	.	.	.	.	.	.	16c	.	.	.	.	.	.	.
8r	.	8r	.	8r	.	8r	.	8B	.	8r	.	8r	.	8r	.
!	!LO:DY:t=%s secco	!	!	!	!	!	!	!	!	!	!	!	!	!	!
8DD` 8FJ	.	8d 8cc 8aa`J	.	8Re\J	.	8ReJ	.	8AJ	.	8a'J	.	8c`J	.	8aa`J	.
!	!	!	!	!	!	!	!	!	!	!	!	!	!	!	!
.	.	.	.	.	.	.	.	.	.	.	.	.	.	.	.
=9	=9	=9	=9	=9	=9	=9	=9	=9	=9	=9	=9	=9	=9	=9	=9
!	!LO:DY:ed=brack	!	!LO:DY:ed=brack	!	!LO:DY:ed=brack	!	!LO:DY:ed=brack	!	!LO:DY:ed=brack	!	!LO:DY:ed=brack	!	!LO:DY:ed=brack	!	!LO:DY:ed=brack
!	!LO:DY:rj	!	!LO:DY:rj	!	!LO:DY:rj	!	!LO:DY:rj	!	!LO:DY:rj	!	!LO:DY:rj	!	!LO:DY:rj	!	!LO:DY:rj
8r	.	8r	.	8r	.	8r	.	8GL	.	8r	.	8r	.	8r	.
!	!	!	!LO:DY:t=%s secco	!	!	!	!	!	!	!	!LO:DY:i:t=sub. meno %s	!	!	!	!
8DD` 8FL	.	8d 8cc 8aa`L	.	8Re\L	.	8Re/L	.	8F	.	8a'L	.	8c'L	.	8aa`L	.
!	!	!	!	!	!	!	!	!LO:TX:b:i:t=molto	!	!	!	!	!	!	!
8r	.	8r	.	8r	.	8r	.	8E	.	8r	.	8r	.	8r	.
8DD` 8FJ	.	8d 8cc 8aa`J	.	8Re\J	.	8Re/J	.	8D	.	8a'J	.	8c'J	.	8aa`J	.
!	!LO:DY:t=%s secco	!	!	!	!	!	!	!	!	!	!	!	!	!	!
8r	.	8r	.	8r	.	8	.	8CJ	.	8r	.	8r	.	8r	.
!	!	!	!	!	!	!	!	!	!	!	!	!	!	!	!
.	.	.	.	.	.	.	.	.	[	.	.	.	.	.	.
!!LO:REH:t=1
=10	=10	=10	=10	=10	=10	=10	=10	=10	=10	=10	=10	=10	=10	=10	=10
!	!LO:DY:ed=brack	!	!LO:DY:ed=brack	!	!LO:DY:ed=brack	!	!LO:DY:ed=brack	!	!LO:DY:ed=brack	!	!LO:DY:ed=brack	!	!	!	!
!	!LO:DY:rj	!	!LO:DY:rj	!	!LO:DY:rj	!	!LO:DY:rj	!	!LO:DY:rj	!	!LO:DY:rj	!	!	!	!
8DD` 8F	.	8d` 8b- 8bb-	.	8Re\	.	8Re/	.	8BB-`	.	8b-	.	8d	.	8bb-`	.
!	!	!	!LO:DY:t=%s secco	!	!	!	!	!	!	!	!LO:DY:i:t=sub. meno %s	!	!LO:DY:i:t=sub. meno %s	!	!LO:DY:i:t=sub. meno %s
8r	.	8B-`L 8d	sf	8r	.	8r	.	8r	.	8r	f	8f'L	f	8B-'L	f
!	!	!	!	!	!	!	!	!	!	!LO:TX:a:t=Solo	!	!	!	!	!
4r	.	8B-` 8d	.	8r	.	8r	.	8r	.	8ffL	.	8f'	.	8B-'	.
.	.	8B-`J 8d	.	4r	.	4r	.	4r	.	8ff	.	8f'J	.	8B-'J	.
!	!LO:DY:t=%s secco	!	!	!	!	!	!	!	!	!	!	!	!	!	!
16BB-`	sf	8r	.	.	.	.	.	.	.	8eeXJ	.	8r'	.	8r'	.
!	!	!	!	!	!	!	!	!	!	!	!	!	!	!	!
16r	.	.	.	.	.	.	.	.	.	.	.	.	.	.	.
=11	=11	=11	=11	=11	=11	=11	=11	=11	=11	=11	=11	=11	=11	=11	=11
*M2/4	*	*M2/4	*	*M2/4	*	*M2/4	*	*M2/4	*	*M2/4	*	*M2/4	*	*M2/4	*
!	!	!	!	!LO:TX:a:t=bag. à tête en capoc	!	!	!	!	!	!	!	!	!	!	!
8r	.	8B-` 8d	.	8r	.	2r	.	2r	.	(20eeXLL	.	8f'	.	8B-'	.
.	.	.	.	.	.	.	.	.	.	20ff	.	.	.	.	.
.	.	.	.	.	.	.	.	.	.	20ee	.	.	.	.	.
!	!	!	!	!LO:TX:b:t=au bord	!	!	!	!	!	!	!	!	!	!	!
!LO:TX:a:t=pizz.	!	!	!	!	!	!	!	!	!	!	!	!	!	!	!
8FFL	.	8r	.	8ReL	p <	.	.	.	.	.	.	8r	.	8r	.
.	.	.	.	.	.	.	.	.	.	20dd	.	.	.	.	.
.	.	.	.	.	.	.	.	.	.	20b-JJ)	.	.	.	.	.
!	!	!	!	!LO:TX:a:t=au milieu	!	!	!	!	!	!	!	!	!	!	!
8BB-J	.	8r	.	8Rg^J	[	.	.	.	.	[4dd	.	8r	.	8r	.
8r	.	8B-`L 8d	.	8r	.	.	.	.	.	.	.	8f'L	.	8B-'L	.
=12	=12	=12	=12	=12	=12	=12	=12	=12	=12	=12	=12	=12	=12	=12	=12
4r	.	8B-` 8d	.	2r	.	2r	.	2r	.	8ddL]	.	8f'	.	8B-'	.
.	.	8B-`J 8d	.	.	.	.	.	.	.	8ff	.	8f'J	.	8B-'J	.
!LO:TX:a:t=arco	!	!	!	!	!	!	!	!	!	!	!	!	!	!	!
16BB-`	.	8r	.	.	.	.	.	.	.	8ff	.	8r'	.	8r'	.
16r	.	.	.	.	.	.	.	.	.	.	.	.	.	.	.
8r	.	8B-` 8d	.	.	.	.	.	.	.	8eeXJ	.	8f'	.	8B-'	.
=13	=13	=13	=13	=13	=13	=13	=13	=13	=13	=13	=13	=13	=13	=13	=13
!LO:TX:a:t=pizz.	!	!	!	!	!	!	!	!	!	!	!	!	!	!	!
8FFL	.	4r	.	8ReL	<	2r	.	2r	.	(20eeXLL	.	4r	.	4r	.
.	.	.	.	.	.	.	.	.	.	20ff	.	.	.	.	.
.	.	.	.	.	.	.	.	.	.	20ee	.	.	.	.	.
8BB-J	.	.	.	8Rg^J	[	.	.	.	.	.	.	.	.	.	.
.	.	.	.	.	.	.	.	.	.	20dd	.	.	.	.	.
.	.	.	.	.	.	.	.	.	.	20ccJJ)	.	.	.	.	.
4r	.	8B-`L 8d	.	4r	.	.	.	.	.	(20ddLL	.	8f'L	.	8B-'L	.
.	.	.	.	.	.	.	.	.	.	20ee	.	.	.	.	.
.	.	.	.	.	.	.	.	.	.	20dd	.	.	.	.	.
.	.	8B-` 8d	.	.	.	.	.	.	.	.	.	8f'	.	8B-'	.
.	.	.	.	.	.	.	.	.	.	20cc	.	.	.	.	.
.	.	.	.	.	.	.	.	.	.	20gJJ)	.	.	.	.	.
=14	=14	=14	=14	=14	=14	=14	=14	=14	=14	=14	=14	=14	=14	=14	=14
8r	.	8B-`J 8d	.	4r	.	2r	.	2r	.	(20ccLL	.	8f'J	.	8B-'J	.
.	.	.	.	.	.	.	.	.	.	20dd	.	.	.	.	.
.	.	.	.	.	.	.	.	.	.	20cc	.	.	.	.	.
!LO:TX:a:t=arco	!	!	!	!	!	!	!	!	!	!	!	!	!	!	!
16BB-`	.	8r	.	.	.	.	.	.	.	.	.	8r'	.	8r'	.
.	.	.	.	.	.	.	.	.	.	20b-	.	.	.	.	.
16r	.	.	.	.	.	.	.	.	.	.	.	.	.	.	.
.	.	.	.	.	.	.	.	.	.	20gJJ)	.	.	.	.	.
!LO:TX:a:t=pizz.	!	!	!	!	!	!	!	!	!	!	!	!	!	!	!
8r	.	8B-` 8d	.	8r	.	.	.	.	.	8b-L	.	8f'	.	8B-'	.
8FF	.	8r	.	8Re/	<	.	.	.	.	16b-L	.	8r	.	8r	.
.	.	.	.	.	[[	.	.	.	.	16fJJ	.	.	.	.	.
=	=	=	=	=	=	=	=	=	=	=	=	=	=	=	=
*-	*-	*-	*-	*-	*-	*-	*-	*-	*-	*-	*-	*-	*-	*-	*-
!!!system-decoration: [(s1,s2)][(s3,s4)][(s5,s6)][(s7,s8)]
!!!CDT: 1882/06/17-1971/04/06
!!!CBL: Lomonosov (Oranienbaum), Russia
!!!CDL: New York, United States
!!!CNT: Russian, French, American
!!!AGN: Stage; Theatrical
!!!MCN: Ansermet, Ernest
!!!MDT: 1918/09/28
!!!MGN: unknown
!!!MLC: Lausanne, Switzerland
!!!MPD: 1918
!!!MPN: unknown
!!!ODT: 1918
!!!PDT: 1924
!!!excerpt-start-measure: 8
!!!excerpt-end-measure: 14
!!!excerpt-start-time: 0:07
!!!excerpt-end-time: 0:14
!!!excerpt-duration-sec: 7
!!!excerpt-time-signature: 2/4
!!!excerpt-tempo-beat: [quarter]
!!!excerpt-tempo-rate: [112]
!!!excerpt-meter-type: simple duple
!!!excerpt-beat-group: G2
!!!excerpt-beat-subgroup: G2
!!!experiment: pqm1,pqm2
!!!EEV: 2020/07/28
!!!Suter_Work_ID: Str-15
!!!Suter_Example_Number: 371
!!!Suter_Example_ID: Str-15/19/2-1[1]1-5
!!!Premiere_Location: Lausanne,Switzerland
!!!Other_Tsigs: 5/8,2/4
!!!Full_Unit_Duration: 4:22
!!!First_Publication_Year: 1924
!!!First_Public_Performance_Year: 1918
!!!Example_Total_Measures: 7
!!!Example_Timestamp_Duration: 7
!!!Example_Start_Tsig_Type: simple duple
!!!Example_Start_Tsig_Mean_Beat_Rate: 112
!!!Example_Start_Tsig_Beat_Rate: 112
!!!Example_Start_Tsig_Beat: quarter
!!!Example_Start_Tsig: 2/4
!!!Example_Start_Timestamp: 0:07
!!!Example_Start_Tempo_Expression: none
!!!Example_Start_Notated_Beat_Rate: [112]
!!!Example_Start_Notated_Beat: [quarter]
!!!Example_Start_Measure: 8
!!!Example_Metadata_Validated: Y
!!!Example_End_Timestamp: 0:14
!!!Example_End_Measure: 14
!!!Example_Dataset: R
!!!Editorial_Comments: Example Start Notated Beat and Example Start Notated Beat Rate [quarter=112] based on most recent notated tempo (SWFU, m. 1). Example used in Experiment 1a was only 5 bars (mm. 1-5).
!!!Death_Place: New York,United States
!!!Death_Date: 6-Apr-1971
!!!Changing_Tsig: yes
!!!Birth_Place: Lomonosov (Oranienbaum),Russia
!!!Birth_Date: 17-Jun-1882
!!!Audio_Example_Quarter_Note_Tempo: 119
!!!Audio_Example_Duration: 7.569
!!!ONB: Converted from MusicXML on 2020/07/28
